X: 1
T:Is the Big Man Within
M:9/8
L:1/8
Q:200
R:set dance
K:D
F|:AGF G2E E2F|GFE F2D D2F|AGF G2E E2c|dcB AFD D2E|
!F/2G/2AF ~G3 EFG|FEF AFD D2F|AGF G2E E2c|dcB AFD D2E:|
!:M: 6/8 F2A ABc|ded cBA|Bcd AGF|BGE EFG|
!F2A ABc|ded cBA|Bcd AGF|1AFD D2E:|2AFD D2F|
